svgs/aves_gallery.svg

<svg width="192" height="192" viewBox="0 0 192 192" fill="none" xmlns="http://www.w3.org/2000/svg">
<g clip-path="url(#clip0_336_14)">
<path d="M120.25 141.019L142.877 118.392C149.126 112.144 149.126 102.013 142.877 95.7646V95.7646M120.25 141.019L86.3087 174.961V107.078M120.25 141.019L86.3087 107.078M86.3087 107.078L23.598 44.3676C18.5583 39.3279 22.1276 30.7107 29.2548 30.7107H71.196C75.4394 30.7107 79.5091 32.3964 82.5097 35.397L106.108 58.995M106.108 58.995L142.877 22.2254L171.161 50.5097H150.877C146.459 50.5097 142.877 54.0914 142.877 58.5097V95.7646M106.108 58.995L142.877 95.7646" stroke="black" stroke-width="12" stroke-linejoin="round"/>
</g>
<defs>
<clipPath id="clip0_336_14">
<rect width="192" height="192" fill="white"/>
</clipPath>
</defs>
</svg>

<svg width="192" height="192" fill="none" xmlns="http://www.w3.org/2000/svg"><g clip-path="url(#a)"><path d="m120.25 141.019 22.627-22.627c6.249-6.248 6.249-16.379 0-22.627m-22.627 45.254-33.941 33.942v-67.883m33.941 33.941-33.941-33.941m0 0-62.711-62.71c-5.04-5.04-1.47-13.657 5.657-13.657h41.941a16 16 0 0 1 11.314 4.686l23.598 23.598m0 0 36.769-36.77 28.284 28.285h-20.284a8 8 0 0 0-8 8v37.255m-36.769-36.77 36.769 36.77" stroke="#000" stroke-width="12" stroke-linejoin="round"/></g><defs><clipPath id="a"><path fill="#fff" d="M0 0h192v192H0z"/></clipPath></defs></svg>
